gama.extension.image/models/Images/includes/emoji/emoji_u1fa79.svg

<svg xmlns="http://www.w3.org/2000/svg" xml:space="preserve" viewBox="0 0 128 128"><path d="m115.6 12.8-.5-.5c-9.4-9.4-24.5-9.4-33.9 0L13.7 79.8c-10.1 10.1-10.1 26.6 0 36.7l.5.5c9.4 9.4 24.5 9.4 33.9 0l67.5-67.5c10.1-10.1 10.1-26.6 0-36.7m-94.2 90c-1 1-2.7 1-3.7 0s-1-2.7 0-3.7 2.7-1 3.7 0 1 2.7 0 3.7M23 92c-1 1-2.7 1-3.7 0s-1-2.7 0-3.7 2.7-1 3.7 0 1 2.7 0 3.7m7.3 19.7c-1 1-2.7 1-3.7 0s-1-2.7 0-3.7 2.7-1 3.7 0 1 2.7 0 3.7m2-10.4c-1 1-2.7 1-3.7 0s-1-2.7 0-3.7 2.7-1 3.7 0 1 2.7 0 3.7m1.5-11c-1 1-2.7 1-3.7 0s-1-2.7 0-3.7 2.7-1 3.7 0 1 2.7 0 3.7m1.6-10.7c-1 1-2.7 1-3.7 0s-1-2.7 0-3.7 2.7-1 3.7 0 1 2.7 0 3.7M41 110c-1 1-2.7 1-3.7 0s-1-2.7 0-3.7 2.7-1 3.7 0 1 2.7 0 3.7m1.7-10.7c-1 1-2.7 1-3.7 0s-1-2.7 0-3.7 2.7-1 3.7 0 1 2.7 0 3.7m2-10.4c-1 1-2.7 1-3.7 0s-1-2.7 0-3.7 2.7-1 3.7 0 1 2.7 0 3.7m8.8 8.8c-1 1-2.7 1-3.7 0s-1-2.7 0-3.7 2.7-1 3.7 0 1 2.7 0 3.7m26.1-62.3c-1 1-2.7 1-3.7 0s-1-2.7 0-3.7 2.7-1 3.7 0 1 2.7 0 3.7m8.7 8.7c-1 1-2.7 1-3.7 0s-1-2.7 0-3.7 2.7-1 3.7 0 1 2.7 0 3.7m2-10.3c-1 1-2.7 1-3.7 0s-1-2.7 0-3.7 2.7-1 3.7 0 1 2.7 0 3.7M92 23c-1 1-2.7 1-3.7 0s-1-2.7 0-3.7 2.7-1 3.7 0 1 2.7 0 3.7m5.7 30.4c-1 1-2.7 1-3.7 0s-1-2.7 0-3.7 2.7-1 3.7 0 1 2.7 0 3.7m1.6-10.7c-1 1-2.7 1-3.7 0s-1-2.7 0-3.7 2.7-1 3.7 0 1 2.7 0 3.7m1.4-11c-1 1-2.7 1-3.7 0S96 29 97 28s2.7-1 3.7 0 1 2.7 0 3.7m2.1-10.3c-1 1-2.7 1-3.7 0s-1-2.7 0-3.7 2.7-1 3.7 0 1 2.7 0 3.7m7.3 19.7c-1 1-2.7 1-3.7 0s-1-2.7 0-3.7 2.7-1 3.7 0 1 2.7 0 3.7m1.6-10.8c-1 1-2.7 1-3.7 0s-1-2.7 0-3.7 2.7-1 3.7 0 1 2.7 0 3.7" style="fill:#bdbdbd"/><path d="m114.3 11.5-.5-.5c-9.4-9.4-24.5-9.4-33.9 0L12.4 78.5c-10.1 10.1-10.1 26.6 0 36.7l.5.5c9.4 9.4 24.5 9.4 33.9 0l67.5-67.5c10.1-10.1 10.1-26.6 0-36.7M20 101.4c-1 1-2.7 1-3.7 0s-1-2.7 0-3.7 2.7-1 3.7 0 1 2.7 0 3.7m1.7-10.7c-1 1-2.7 1-3.7 0S17 88 18 87s2.7-1 3.7 0 1 2.7 0 3.7m7.3 19.7c-1 1-2.7 1-3.7 0s-1-2.7 0-3.7 2.7-1 3.7 0 1 2.7 0 3.7m2-10.4c-1 1-2.7 1-3.7 0s-1-2.7 0-3.7 2.7-1 3.7 0 1 2.7 0 3.7m1.4-11c-1 1-2.7 1-3.7 0s-1-2.7 0-3.7 2.7-1 3.7 0 1 2.7 0 3.7m1.7-10.7c-1 1-2.7 1-3.7 0s-1-2.7 0-3.7 2.7-1 3.7 0 1 2.7 0 3.7m5.6 30.4c-1 1-2.7 1-3.7 0s-1-2.7 0-3.7 2.7-1 3.7 0 1 2.7 0 3.7M41.4 98c-1 1-2.7 1-3.7 0s-1-2.7 0-3.7 2.7-1 3.7 0 1 2.7 0 3.7m2-10.4c-1 1-2.7 1-3.7 0s-1-2.7 0-3.7 2.7-1 3.7 0 1 2.7 0 3.7m8.7 8.7c-1 1-2.7 1-3.7 0s-1-2.7 0-3.7 2.7-1 3.7 0 1 2.7 0 3.7m26.2-62.2c-1 1-2.7 1-3.7 0s-1-2.7 0-3.7 2.7-1 3.7 0 1 2.7 0 3.7m8.7 8.7c-1 1-2.7 1-3.7 0s-1-2.7 0-3.7 2.7-1 3.7 0 1 2.7 0 3.7m2-10.4c-1 1-2.7 1-3.7 0s-1-2.7 0-3.7 2.7-1 3.7 0 1 2.7 0 3.7m1.7-10.7c-1 1-2.7 1-3.7 0S86 19 87 18s2.7-1 3.7 0 1 2.7 0 3.7m5.6 30.4c-1 1-2.7 1-3.7 0s-1-2.7 0-3.7 2.7-1 3.7 0 1 2.7 0 3.7M98 41.4c-1 1-2.7 1-3.7 0s-1-2.7 0-3.7 2.7-1 3.7 0 1 2.7 0 3.7m1.4-11c-1 1-2.7 1-3.7 0s-1-2.7 0-3.7 2.7-1 3.7 0 1 2.7 0 3.7m2-10.4c-1 1-2.7 1-3.7 0s-1-2.7 0-3.7 2.7-1 3.7 0 1 2.7 0 3.7m7.3 19.7c-1 1-2.7 1-3.7 0s-1-2.7 0-3.7 2.7-1 3.7 0 1 2.7 0 3.7m1.7-10.7c-1 1-2.7 1-3.7 0s-1-2.7 0-3.7 2.7-1 3.7 0 1 2.7 0 3.7" style="fill:#e0e1e0"/><path d="M87.1 66c2.1-2.3 1.7-3-2.2-2.7-3.2.2-5.3 2.3-6.6 3.6L64.2 81c-1.3 1.3-3.3 1.3-4.5 0h-.1c-2.3-2.5-11.4-11.6-11.4-11.6-1.3-1.3-2.8-3-4.5-3.5-1.4-.4-2.6-1-5.2-.4-2.2.5 1.7 3.8 2.7 4.8L58.9 88c1.7 1.7 4.4 1.7 6.1 0 0 0 21.4-21.2 22.1-22" style="fill:#bdbdbd"/><path d="M88 58.9S68.3 39.3 67.8 38.7c-1.7-1.7-4.4-1.7-6.1 0-2 2-20.6 20.4-20.6 20.4s-2.5 2.5.1 3 4.4 0 6.3-1.8c5-4.8 14.8-14.5 14.8-14.5 1.3-1.3 3.3-1.3 4.5 0 2.3 2.3 10.1 10 11.7 11.6 2 2 4.2 3.2 7.1 3.3 3.8.2 2.5-1.2 2.2-1.7z" style="fill:#fff"/></svg>

<?xml version="1.0" encoding="utf-8"?>
<!-- Generator: Adobe Illustrator 26.3.1, SVG Export Plug-In . SVG Version: 6.00 Build 0)  -->
<svg version="1.1" id="Layer_1" xmlns="http://www.w3.org/2000/svg" xmlns:xlink="http://www.w3.org/1999/xlink" x="0px" y="0px"
	 viewBox="0 0 128 128" style="enable-background:new 0 0 128 128;" xml:space="preserve">
<path style="fill:#BDBDBD;" d="M115.6,12.8l-0.5-0.5l0,0c-9.4-9.4-24.5-9.4-33.9,0L13.7,79.8l0,0c-10.1,10.1-10.1,26.6,0,36.7
	l0.5,0.5c9.4,9.4,24.5,9.4,33.9,0l67.5-67.5l0,0C125.7,39.4,125.7,22.9,115.6,12.8C115.6,12.8,115.6,12.8,115.6,12.8z M21.4,102.8
	c-1,1-2.7,1-3.7,0s-1-2.7,0-3.7s2.7-1,3.7,0S22.4,101.8,21.4,102.8z M23,92c-1,1-2.7,1-3.7,0s-1-2.7,0-3.7s2.7-1,3.7,0S24,91,23,92z
	 M30.3,111.7c-1,1-2.7,1-3.7,0s-1-2.7,0-3.7s2.7-1,3.7,0S31.3,110.7,30.3,111.7z M32.3,101.3c-1,1-2.7,1-3.7,0s-1-2.7,0-3.7
	s2.7-1,3.7,0S33.3,100.3,32.3,101.3z M33.8,90.3c-1,1-2.7,1-3.7,0s-1-2.7,0-3.7s2.7-1,3.7,0S34.8,89.3,33.8,90.3z M35.4,79.6
	c-1,1-2.7,1-3.7,0s-1-2.7,0-3.7s2.7-1,3.7,0S36.4,78.6,35.4,79.6z M41,110c-1,1-2.7,1-3.7,0s-1-2.7,0-3.7s2.7-1,3.7,0S42,109,41,110
	z M42.7,99.3c-1,1-2.7,1-3.7,0s-1-2.7,0-3.7s2.7-1,3.7,0S43.7,98.3,42.7,99.3z M44.7,88.9c-1,1-2.7,1-3.7,0s-1-2.7,0-3.7
	s2.7-1,3.7,0S45.7,87.9,44.7,88.9z M53.5,97.7c-1,1-2.7,1-3.7,0s-1-2.7,0-3.7s2.7-1,3.7,0S54.5,96.7,53.5,97.7z M79.6,35.4
	c-1,1-2.7,1-3.7,0s-1-2.7,0-3.7s2.7-1,3.7,0S80.6,34.4,79.6,35.4z M88.3,44.1c-1,1-2.7,1-3.7,0s-1-2.7,0-3.7s2.7-1,3.7,0
	S89.3,43.1,88.3,44.1z M90.3,33.8c-1,1-2.7,1-3.7,0s-1-2.7,0-3.7s2.7-1,3.7,0S91.3,32.8,90.3,33.8z M92,23c-1,1-2.7,1-3.7,0
	s-1-2.7,0-3.7s2.7-1,3.7,0S93,22,92,23z M97.7,53.4c-1,1-2.7,1-3.7,0s-1-2.7,0-3.7s2.7-1,3.7,0S98.7,52.4,97.7,53.4z M99.3,42.7
	c-1,1-2.7,1-3.7,0s-1-2.7,0-3.7s2.7-1,3.7,0S100.3,41.7,99.3,42.7z M100.7,31.7c-1,1-2.7,1-3.7,0S96,29,97,28s2.7-1,3.7,0
	S101.7,30.7,100.7,31.7z M102.8,21.4c-1,1-2.7,1-3.7,0s-1-2.7,0-3.7s2.7-1,3.7,0S103.8,20.4,102.8,21.4z M110.1,41.1
	c-1,1-2.7,1-3.7,0s-1-2.7,0-3.7s2.7-1,3.7,0S111.1,40.1,110.1,41.1z M111.7,30.3c-1,1-2.7,1-3.7,0s-1-2.7,0-3.7s2.7-1,3.7,0
	S112.7,29.3,111.7,30.3z"/>
<path style="fill:#E0E1E0;" d="M114.3,11.5l-0.5-0.5l0,0c-9.4-9.4-24.5-9.4-33.9,0L12.4,78.5l0,0c-10.1,10.1-10.1,26.6,0,36.7
	l0.5,0.5c9.4,9.4,24.5,9.4,33.9,0l67.5-67.5l0,0C124.4,38.1,124.4,21.6,114.3,11.5L114.3,11.5z M20,101.4c-1,1-2.7,1-3.7,0
	s-1-2.7,0-3.7s2.7-1,3.7,0S21,100.4,20,101.4z M21.7,90.7c-1,1-2.7,1-3.7,0S17,88,18,87s2.7-1,3.7,0S22.7,89.7,21.7,90.7z M29,110.4
	c-1,1-2.7,1-3.7,0s-1-2.7,0-3.7s2.7-1,3.7,0S30,109.4,29,110.4z M31,100c-1,1-2.7,1-3.7,0s-1-2.7,0-3.7s2.7-1,3.7,0S32,99,31,100z
	 M32.4,89c-1,1-2.7,1-3.7,0s-1-2.7,0-3.7s2.7-1,3.7,0S33.4,88,32.4,89z M34.1,78.3c-1,1-2.7,1-3.7,0s-1-2.7,0-3.7s2.7-1,3.7,0
	S35.1,77.3,34.1,78.3z M39.7,108.7c-1,1-2.7,1-3.7,0s-1-2.7,0-3.7s2.7-1,3.7,0S40.7,107.7,39.7,108.7z M41.4,98c-1,1-2.7,1-3.7,0
	s-1-2.7,0-3.7s2.7-1,3.7,0S42.4,97,41.4,98z M43.4,87.6c-1,1-2.7,1-3.7,0s-1-2.7,0-3.7s2.7-1,3.7,0S44.4,86.6,43.4,87.6z M52.1,96.3
	c-1,1-2.7,1-3.7,0s-1-2.7,0-3.7s2.7-1,3.7,0S53.1,95.3,52.1,96.3z M78.3,34.1c-1,1-2.7,1-3.7,0s-1-2.7,0-3.7s2.7-1,3.7,0
	S79.3,33.1,78.3,34.1z M87,42.8c-1,1-2.7,1-3.7,0s-1-2.7,0-3.7s2.7-1,3.7,0S88,41.8,87,42.8z M89,32.4c-1,1-2.7,1-3.7,0
	s-1-2.7,0-3.7s2.7-1,3.7,0S90,31.4,89,32.4z M90.7,21.7c-1,1-2.7,1-3.7,0S86,19,87,18s2.7-1,3.7,0S91.7,20.7,90.7,21.7z M96.3,52.1
	c-1,1-2.7,1-3.7,0s-1-2.7,0-3.7s2.7-1,3.7,0S97.3,51.1,96.3,52.1z M98,41.4c-1,1-2.7,1-3.7,0s-1-2.7,0-3.7s2.7-1,3.7,0
	S99,40.4,98,41.4z M99.4,30.4c-1,1-2.7,1-3.7,0s-1-2.7,0-3.7s2.7-1,3.7,0S100.4,29.4,99.4,30.4z M101.4,20c-1,1-2.7,1-3.7,0
	s-1-2.7,0-3.7s2.7-1,3.7,0S102.4,19,101.4,20z M108.7,39.7c-1,1-2.7,1-3.7,0s-1-2.7,0-3.7s2.7-1,3.7,0S109.7,38.7,108.7,39.7z
	 M110.4,29c-1,1-2.7,1-3.7,0s-1-2.7,0-3.7s2.7-1,3.7,0S111.4,28,110.4,29z"/>
<path style="fill:#BDBDBD;" d="M87.1,66c2.1-2.3,1.7-3-2.2-2.7c-3.2,0.2-5.3,2.3-6.6,3.6L64.2,81c-1.3,1.3-3.3,1.3-4.5,0h-0.1
	c-2.3-2.5-11.4-11.6-11.4-11.6c-1.3-1.3-2.8-3-4.5-3.5c-1.4-0.4-2.6-1-5.2-0.4c-2.2,0.5,1.7,3.8,2.7,4.8
	c1.5,1.5,13.3,13.3,17.7,17.7c1.7,1.7,4.4,1.7,6.1,0C65,88,86.4,66.8,87.1,66C87.1,66,87.1,66,87.1,66z"/>
<path style="fill:#FFFFFF;" d="M88,58.9c0,0-19.7-19.6-20.2-20.2c-1.7-1.7-4.4-1.7-6.1,0c-2,2-20.6,20.4-20.6,20.4s-2.5,2.5,0.1,3
	s4.4,0,6.3-1.8c5-4.8,14.8-14.5,14.8-14.5c1.3-1.3,3.3-1.3,4.5,0c2.3,2.3,10.1,10,11.7,11.6c2,2,4.2,3.2,7.1,3.3
	c3.8,0.2,2.5-1.2,2.2-1.7l0,0L88,58.9z"/>
</svg>
